contributed-vectors/samsung_sidesync.svg

<?xml version="1.0" encoding="UTF-8" standalone="no"?>
<svg
   xmlns:dc="http://purl.org/dc/elements/1.1/"
   xmlns:cc="http://creativecommons.org/ns#"
   xmlns:rdf="http://www.w3.org/1999/02/22-rdf-syntax-ns#"
   xmlns:svg="http://www.w3.org/2000/svg"
   xmlns="http://www.w3.org/2000/svg"
   xmlns:sodipodi="http://sodipodi.sourceforge.net/DTD/sodipodi-0.dtd"
   xmlns:inkscape="http://www.inkscape.org/namespaces/inkscape"
   width="100%"
   height="100%"
   viewBox="0 0 192 192"
   version="1.1"
   xml:space="preserve"
   style="fill-rule:evenodd;clip-rule:evenodd;stroke-linejoin:round;stroke-miterlimit:2;"
   id="svg15"
   sodipodi:docname="samsung_sidesync.svg"
   inkscape:version="0.92.5 (2060ec1f9f, 2020-04-08)"><metadata
   id="metadata21"><rdf:RDF><cc:Work
       rdf:about=""><dc:format>image/svg+xml</dc:format><dc:type
         rdf:resource="http://purl.org/dc/dcmitype/StillImage" /><dc:title></dc:title></cc:Work></rdf:RDF></metadata><defs
   id="defs19">
        
        
    
            
            
        
            
        </defs><sodipodi:namedview
   pagecolor="#ffffff"
   bordercolor="#666666"
   borderopacity="1"
   objecttolerance="10"
   gridtolerance="10"
   guidetolerance="10"
   inkscape:pageopacity="0"
   inkscape:pageshadow="2"
   inkscape:window-width="1280"
   inkscape:window-height="745"
   id="namedview17"
   showgrid="true"
   inkscape:snap-global="false"
   inkscape:zoom="3.4766083"
   inkscape:cx="47.208571"
   inkscape:cy="96"
   inkscape:window-x="-12"
   inkscape:window-y="-2"
   inkscape:window-maximized="1"
   inkscape:current-layer="svg15"><inkscape:grid
     type="xygrid"
     id="grid887" /></sodipodi:namedview>
    <path
   style="fill:#9abeff"
   d="M 96 19.5 L 30 97 L 96 172.5 L 162.5 172.5 C 168.019 172.5 172.5 168.019 172.5 162.5 L 172.5 29.5 C 172.5 23.981 168.019 19.5 162.5 19.5 L 96 19.5 z "
   id="path2" />
<path
   style="opacity:1;vector-effect:none;fill:#8c72bd;fill-opacity:1;stroke-width:4.02631569;paint-order:stroke fill markers"
   d="M 29.5 19.5 C 23.981 19.5 19.5 23.981 19.5 29.5 L 19.5 162.5 C 19.5 168.019 23.981 172.5 29.5 172.5 L 96 172.5 L 96 19.5 L 29.5 19.5 z "
   id="rect976" /><path
   style="fill:#ffffff;stroke-width:4.02631569"
   d="M 99.076172 59.884766 C 88.360382 59.723679 77.378906 65.550782 67.816406 79.894531 L 59.763672 73.855469 L 59.763672 104.05273 L 87.947266 93.986328 L 79.894531 87.947266 C 95.999794 63.789371 120.1582 67.816406 120.1582 67.816406 C 113.61544 62.909334 106.40803 59.994983 99.076172 59.884766 z M 132.23633 87.947266 L 104.05273 98.013672 L 112.10547 104.05273 C 96.000204 128.21062 71.841797 124.18359 71.841797 124.18359 C 87.94706 136.26253 108.07833 136.26336 124.18359 112.10547 L 132.23633 118.14453 L 132.23633 87.947266 z "
   id="path957" /></svg>

<svg xmlns="http://www.w3.org/2000/svg" xml:space="preserve" style="fill-rule:evenodd;clip-rule:evenodd;stroke-linejoin:round;stroke-miterlimit:2" viewBox="0 0 192 192"><path d="M96 19.5 30 97l66 75.5h66.5c5.519 0 10-4.481 10-10v-133c0-5.519-4.481-10-10-10H96z" style="fill:#9abeff"/><path d="M29.5 19.5c-5.519 0-10 4.481-10 10v133c0 5.519 4.481 10 10 10H96v-153H29.5z" style="opacity:1;vector-effect:none;fill:#8c72bd;fill-opacity:1;stroke-width:4.02631569;paint-order:stroke fill markers"/><path d="M99.076 59.885c-10.716-.161-21.697 5.666-31.26 20.01l-8.052-6.04v30.198l28.183-10.067-8.052-6.039C96 63.79 120.158 67.817 120.158 67.817c-6.543-4.908-13.75-7.822-21.082-7.932zm33.16 28.062-28.183 10.067 8.052 6.039C96 128.21 71.842 124.183 71.842 124.183c16.105 12.08 36.236 12.08 52.342-12.078l8.052 6.04V87.947z" style="fill:#fff;stroke-width:4.02631569"/></svg>
